assets/badge-no.svg

<?xml version="1.0" encoding="UTF-8"?>
<!DOCTYPE svg PUBLIC "-//W3C//DTD SVG 1.1//EN" "http://www.w3.org/Graphics/SVG/1.1/DTD/svg11.dtd">
<!-- Creator: CorelDRAW 2017 -->
<svg xmlns="http://www.w3.org/2000/svg" xml:space="preserve" width="100%" height="100%" version="1.1" style="shape-rendering:geometricPrecision; text-rendering:geometricPrecision; image-rendering:optimizeQuality; fill-rule:evenodd; clip-rule:evenodd"
viewBox="0 0 4.31763 1.89179"
 xmlns:xlink="http://www.w3.org/1999/xlink">
 <defs>
  <style type="text/css">
   <![CDATA[
    .fil0 {fill:#FEFEFE}
    .fil1 {fill:#D2AE6D}
   ]]>
  </style>
 </defs>
 <g id="Camada_x0020_1">
  <metadata id="CorelCorpID_0Corel-Layer"/>
  <path class="fil0" d="M2.08257 0.85651l0 -0.39194 0.38523 0 0 0.18497 0.18497 -0.18497 0.85432 0 0.19629 0.1963 0 0.47847 -0.19629 0.19629 -0.85432 0 -0.18497 -0.18496 0 0.18496 -0.53935 0 -0.254 -0.39276 0 0.39276 -0.38523 0 0 -0.87106 0.53814 0 0.25521 0.39194zm0.19442 0.02768l0.05742 0 0.01394 -0.0241 0.09877 0 0.01393 0.0241 0.06406 0 -0.08164 -0.13518 -0.08484 0 -0.08164 0.13518zm0.12084 -0.10991l0.03065 0.05349 -0.0615 0 0.03085 -0.05349zm0.1487 0.10991l0.051 0 0 -0.10187 0.04692 0.10187 0.07242 0 0.04885 -0.10187 0 0.10187 0.05614 0 0 -0.13518 -0.08913 0 -0.04907 0.10129 -0.04714 -0.10129 -0.08999 0 0 0.13518zm0.31175 0l0.1457 0 0 -0.03037 -0.04457 0 0 -0.07444 0.04457 0 0 -0.03037 -0.1457 0 0 0.03037 0.04457 0 0 0.07444 -0.04457 0 0 0.03037zm0.18213 0l0.05036 0 0 -0.10148 0.07177 0.10148 0.08742 0 0 -0.13518 -0.05035 0 0 0.10109 -0.07199 -0.10109 -0.08721 0 0 0.13518zm0.27961 0l0.16027 0 0.0315 -0.0288 0 -0.07758 -0.0315 -0.0288 -0.16027 0 -0.0315 0.0288 0 0.07758 0.0315 0.0288zm0.03771 -0.03135l-0.01264 -0.01155 0 -0.04937 0.01264 -0.01156 0.08485 0 0.01264 0.01156 0 0.04937 -0.01264 0.01155 -0.08485 0zm-1.05499 0.19838l0.11128 0 0.02921 -0.01966 0 -0.0464 -0.02482 -0.01671 -0.08325 0 -0.00439 -0.00314 0 -0.01888 0.00584 -0.00413 0.04441 0 0.00642 0.00433 0 0.01121 0.05521 0 0 -0.0232 -0.02833 -0.01907 -0.10983 0 -0.02921 0.01966 0 0.04561 0.02483 0.0169 0.08325 0 0.00438 0.00295 0 0.01966 -0.00584 0.00394 -0.04587 0 -0.00643 -0.00413 0 -0.01121 -0.0552 0 0 0.0232 0.02834 0.01907zm0.16795 0l0.05521 0 0 -0.04365 0.08443 0 0.03096 -0.02103 0 -0.05013 -0.03096 -0.02084 -0.13964 0 0 0.13565zm0.05521 -0.0696l0 -0.0401 0.05171 0 0.00817 0.0055 0 0.0291 -0.00817 0.0055 -0.05171 0zm0.12912 0.0696l0.1224 0 0 -0.02575 -0.03359 0 0 -0.08435 0.03359 0 0 -0.02555 -0.1224 0 0 0.02555 0.0333 0 0 0.08435 -0.0333 0 0 0.02575zm0.26465 0l0.06135 0 -0.05637 -0.08041 0.05404 -0.05524 -0.06165 0 -0.059 0.06586 0 -0.06586 -0.05521 0 0 0.13565 0.05521 0 0 -0.02399 0.02688 -0.02811 0.03475 0.0521zm0.07508 0l0.1224 0 0 -0.02575 -0.03359 0 0 -0.08435 0.03359 0 0 -0.02555 -0.1224 0 0 0.02555 0.0333 0 0 0.08435 -0.0333 0 0 0.02575zm0.14781 0l0.04908 0 0 -0.0808 0.06368 0.0808 0.05667 0 0 -0.13565 -0.04908 0 0 0.07962 -0.06426 -0.07962 -0.05609 0 0 0.13565zm0.2296 0l0.11304 0 0.02922 -0.01966 0 -0.05682 -0.0964 0 0 0.02713 0.0409 0 0 0.01907 -0.00614 0.00413 -0.04615 0 -0.00994 -0.00649 0 -0.069 0.00994 -0.00669 0.04615 0 0.00614 0.00433 0 0.0116 0.0555 0 0 -0.02359 -0.02922 -0.01966 -0.11304 0 -0.03096 0.02084 0 0.09397 0.03096 0.02084z"/>
  <path class="fil1" d="M1.30237 0.44235l0 0.87119c0,0.10253 -0.0837,0.18625 -0.18623,0.18625l-0.10482 0c-0.10251,0 -0.18622,-0.08372 -0.18622,-0.18625l0 -0.87119c-0.02288,-0.01864 -0.03707,-0.04694 -0.03707,-0.07777 0,-0.05525 0.04504,-0.10028 0.10029,-0.10028l0.07616 0c-0.0267,0.00836 -0.04922,0.02616 -0.06368,0.04948l-0.01248 0c-0.02793,0 -0.05079,0.02286 -0.05079,0.05079l0 0.00001c0,0.02318 0.01573,0.04287 0.03705,0.04889l0 0.90007c0,0.07522 0.06152,0.13676 0.13674,0.13676l0.10482 0c0.07522,0 0.13675,-0.06154 0.13675,-0.13676l0 -0.90007c0.02132,-0.00602 0.03704,-0.02571 0.03704,-0.04889l0 -0.00001c0,-0.02793 -0.02284,-0.05079 -0.05078,-0.05079l-0.10709 0c0.02232,-0.00898 0.04003,-0.02698 0.04863,-0.04948l0.05846 0c0.05525,0 0.10027,0.04503 0.10027,0.10027 0,0.03084 -0.01417,0.05914 -0.03705,0.07778zm-0.30865 -0.44235c0.03014,0 0.05459,0.02443 0.05459,0.05457 0,0.03016 -0.02445,0.05459 -0.05459,0.05459 -0.03014,0 -0.05458,-0.02443 -0.05458,-0.05459 0,-0.03014 0.02444,-0.05457 0.05458,-0.05457zm0.13807 0.09847c0.01655,0 0.02997,0.01341 0.02997,0.02997 0,0.01654 -0.01342,0.02995 -0.02997,0.02995 -0.01656,0 -0.02997,-0.01341 -0.02997,-0.02995 0,-0.01656 0.01341,-0.02997 0.02997,-0.02997zm-0.03211 0.08775c0.02601,0 0.04709,0.02108 0.04709,0.04709 0,0.02601 -0.02108,0.04709 -0.04709,0.04709 -0.02601,0 -0.04709,-0.02108 -0.04709,-0.04709 0,-0.02601 0.02108,-0.04709 0.04709,-0.04709zm-0.1006 0.10704c0.04492,0 0.08134,0.03641 0.08134,0.08134 0,0.04492 -0.03642,0.08133 -0.08134,0.08133 -0.04493,0 -0.08135,-0.03641 -0.08135,-0.08133 0,-0.04493 0.03642,-0.08134 0.08135,-0.08134zm0.12951 0.13057c0.03487,0 0.06314,0.02826 0.06314,0.06314 0,0.03488 -0.02827,0.06315 -0.06314,0.06315 -0.03489,0 -0.06315,-0.02827 -0.06315,-0.06315 0,-0.03488 0.02826,-0.06314 0.06315,-0.06314zm-0.20989 0.68398l0 -0.53627 0.29007 0 0 0.742c0,0.05087 -0.04176,0.09265 -0.09263,0.09265l-0.10482 0c-0.05086,0 -0.09262,-0.04178 -0.09262,-0.09265l0 -0.20573z"/>
  <path class="fil1" d="M0.95163 1.7577c-0.01387,-0.05917 -0.23136,-0.09426 -0.30573,-0.06118 0.0559,0.05918 0.27016,0.11044 0.30573,0.06118zm-0.34852 -0.0792c0.01073,-0.05672 -0.16469,-0.17095 -0.24201,-0.17083 0.02578,0.0729 0.19215,0.19992 0.24201,0.17083zm0.19942 -0.03639c0.00184,-0.05769 -0.18909,-0.14349 -0.26546,-0.13146 0.03672,0.06805 0.22069,0.1679 0.26546,0.13146zm-0.12339 0.14684c-0.00891,-0.05703 -0.21245,-0.10582 -0.28526,-0.07978 0.04871,0.06001 0.24806,0.12391 0.28526,0.07978zm-0.34965 -0.30947c0.02941,-0.04629 -0.08531,-0.20872 -0.15359,-0.23578 -0.00284,0.0734 0.09938,0.24395 0.15359,0.23578zm0.16114 0.01379c0.02678,-0.04786 -0.09684,-0.20364 -0.1665,-0.22682 0.00123,0.07343 0.11284,0.23801 0.1665,0.22682zm-0.12133 0.12792c0.01433,-0.05293 -0.14338,-0.17401 -0.21662,-0.17958 0.01903,0.07094 0.16726,0.20347 0.21662,0.17958zm-0.20759 -0.41269c0.04212,-0.03065 -0.00267,-0.21417 -0.0536,-0.26186 -0.02809,0.06386 0.00284,0.25021 0.0536,0.26186zm0.11408 0.0427c0.04421,-0.02759 0.01263,-0.21385 -0.0348,-0.26504 -0.03257,0.06171 -0.01498,0.24979 0.0348,0.26504zm-0.12799 0.122c0.03065,-0.04214 -0.06836,-0.20301 -0.13147,-0.23277 -0.00713,0.06942 0.07958,0.23727 0.13147,0.23277zm-0.04543 -0.46593c0.04719,-0.01495 0.06202,-0.19383 0.03048,-0.25211 -0.04453,0.0491 -0.07271,0.22635 -0.03048,0.25211zm0.07075 0.06163c0.04886,-0.00781 0.09001,-0.18249 0.06746,-0.24483 -0.0513,0.04197 -0.10542,0.21309 -0.06746,0.24483zm-0.13465 0.0856c0.04371,-0.02317 0.02631,-0.20177 -0.01519,-0.25349 -0.03501,0.05628 -0.03099,0.23569 0.01519,0.25349zm0.1032 -0.42003c0.047,0.00081 0.11458,-0.15572 0.10384,-0.21778 -0.05496,0.03072 -0.13405,0.18176 -0.10384,0.21778zm0.03177 0.07991c0.04605,0.00948 0.14132,-0.13191 0.14222,-0.19487 -0.05967,0.02006 -0.16528,0.15391 -0.14222,0.19487zm-0.11359 -0.01026c0.04575,-0.0109 0.07226,-0.17933 0.04644,-0.23676 -0.0456,0.04343 -0.08465,0.20937 -0.04644,0.23676zm0.19719 -0.30009c0.04274,0.01297 0.14513,-0.11253 0.15142,-0.17203 -0.0582,0.0138 -0.16967,0.13129 -0.15142,0.17203zm0.16577 -0.1854c0.0464,0.03237 0.2189,-0.07866 0.24979,-0.14786 -0.07551,-0.00619 -0.25583,0.09163 -0.24979,0.14786zm-0.00599 0.07493c0.03036,0.02962 0.17164,-0.03138 0.20298,-0.0788 -0.05512,-0.01382 -0.20055,0.03644 -0.20298,0.0788zm-0.08364 -0.07932c0.03947,0.0156 0.14615,-0.09529 0.15674,-0.15112 -0.05616,0.00855 -0.17086,0.11111 -0.15674,0.15112zm-0.05846 0.26378c0.03785,0.0237 0.16956,-0.07058 0.19122,-0.12634 -0.05978,-0.00194 -0.19816,0.08224 -0.19122,0.12634zm-0.10928 -0.05231c0.04445,0.00432 0.12016,-0.13887 0.11464,-0.19846 -0.05435,0.02499 -0.14057,0.16212 -0.11464,0.19846zm0.78862 1.40571c-0.03283,-0.05334 -0.25698,-0.01688 -0.31896,0.03968 0.07395,0.03966 0.30021,0.02006 0.31896,-0.03968z"/>
  <path class="fil1" d="M3.366 1.7577c0.01387,-0.05917 0.23136,-0.09426 0.30573,-0.06118 -0.0559,0.05918 -0.27017,0.11044 -0.30573,0.06118zm0.34852 -0.0792c-0.01073,-0.05672 0.16469,-0.17095 0.24201,-0.17083 -0.02578,0.0729 -0.19215,0.19992 -0.24201,0.17083zm-0.19942 -0.03639c-0.00184,-0.05769 0.18909,-0.14349 0.26546,-0.13146 -0.03673,0.06805 -0.22069,0.1679 -0.26546,0.13146zm0.12339 0.14684c0.00891,-0.05703 0.21245,-0.10582 0.28525,-0.07978 -0.04871,0.06001 -0.24805,0.12391 -0.28525,0.07978zm0.34965 -0.30947c-0.02941,-0.04629 0.08531,-0.20872 0.15359,-0.23578 0.00284,0.0734 -0.09939,0.24395 -0.15359,0.23578zm-0.16114 0.01379c-0.02678,-0.04786 0.09684,-0.20364 0.1665,-0.22682 -0.00123,0.07343 -0.11284,0.23801 -0.1665,0.22682zm0.12133 0.12792c-0.01433,-0.05293 0.14338,-0.17401 0.21662,-0.17958 -0.01904,0.07094 -0.16726,0.20347 -0.21662,0.17958zm0.20759 -0.41269c-0.04212,-0.03065 0.00267,-0.21417 0.0536,-0.26186 0.02809,0.06386 -0.00284,0.25021 -0.0536,0.26186zm-0.11408 0.0427c-0.04421,-0.02759 -0.01263,-0.21385 0.0348,-0.26504 0.03257,0.06171 0.01498,0.24979 -0.0348,0.26504zm0.12799 0.122c-0.03065,-0.04214 0.06836,-0.20301 0.13147,-0.23277 0.00713,0.06942 -0.07958,0.23727 -0.13147,0.23277zm0.04542 -0.46593c-0.04718,-0.01495 -0.06201,-0.19383 -0.03047,-0.25211 0.04453,0.0491 0.07271,0.22635 0.03047,0.25211zm-0.07074 0.06163c-0.04887,-0.00781 -0.09001,-0.18249 -0.06746,-0.24483 0.0513,0.04197 0.10542,0.21309 0.06746,0.24483zm0.13465 0.0856c-0.04371,-0.02317 -0.02631,-0.20177 0.01519,-0.25349 0.03501,0.05628 0.03099,0.23569 -0.01519,0.25349zm-0.1032 -0.42003c-0.047,0.00081 -0.11458,-0.15572 -0.10384,-0.21778 0.05496,0.03072 0.13405,0.18176 0.10384,0.21778zm-0.03177 0.07991c-0.04605,0.00948 -0.14132,-0.13191 -0.14223,-0.19487 0.05968,0.02006 0.16529,0.15391 0.14223,0.19487zm0.11359 -0.01026c-0.04575,-0.0109 -0.07227,-0.17933 -0.04644,-0.23676 0.04559,0.04343 0.08464,0.20937 0.04644,0.23676zm-0.19719 -0.30009c-0.04274,0.01297 -0.14513,-0.11253 -0.15142,-0.17203 0.0582,0.0138 0.16967,0.13129 0.15142,0.17203zm-0.16577 -0.1854c-0.04641,0.03237 -0.2189,-0.07866 -0.24979,-0.14786 0.07551,-0.00619 0.25583,0.09163 0.24979,0.14786zm0.00599 0.07493c-0.03037,0.02962 -0.17164,-0.03138 -0.20298,-0.0788 0.05511,-0.01382 0.20055,0.03644 0.20298,0.0788zm0.08364 -0.07932c-0.03947,0.0156 -0.14616,-0.09529 -0.15674,-0.15112 0.05616,0.00855 0.17086,0.11111 0.15674,0.15112zm0.05846 0.26378c-0.03786,0.0237 -0.16956,-0.07058 -0.19122,-0.12634 0.05978,-0.00194 0.19816,0.08224 0.19122,0.12634zm0.10928 -0.05231c-0.04445,0.00432 -0.12016,-0.13887 -0.11464,-0.19846 0.05435,0.02499 0.14057,0.16212 0.11464,0.19846zm-0.78862 1.40571c0.03283,-0.05334 0.25698,-0.01688 0.31896,0.03968 -0.07395,0.03966 -0.30021,0.02006 -0.31896,-0.03968z"/>
 </g>
</svg>

<svg xmlns="http://www.w3.org/2000/svg" width="100%" height="100%" fill-rule="evenodd" clip-rule="evenodd" image-rendering="optimizeQuality" shape-rendering="geometricPrecision" text-rendering="geometricPrecision" version="1.1" viewBox="0 0 4.3176 1.8918" xml:space="preserve">
  <path fill="#fefefe" d="M2.0826.8565v-.392h.3852v.185l.185-.185h.8543l.1963.1964v.4784l-.1963.1963h-.8543l-.185-.185v.185h-.5393L1.6744.943v.3927h-.3853v-.871h.5382l.2552.392zm.1944.0277h.0574L2.3484.86h.0987l.014.024h.064l-.0816-.135h-.0849L2.277.884zm.1208-.11l.0307.0536H2.367l.0308-.0535zm.1487.11h.051V.7823l.047.1019h.0724l.0488-.1019v.1019h.0562V.749h-.0892l-.049.1013L2.6365.749h-.09v.1352zm.3118 0h.1457V.8538h-.0446V.7794h.0446V.749h-.1457v.0304h.0446v.0744h-.0446v.0304zm.1821 0h.0504V.7827l.0717.1015H3.25V.749h-.0504v.1011l-.072-.101h-.0872v.135zm.2796 0h.1603l.0315-.0288V.7778L3.4803.749H3.32l-.0315.0288v.0776L3.32.8842zm.0377-.0314L3.3451.8413V.7919l.0126-.0115h.0849l.0126.0115v.0494l-.0126.0115h-.0849zm-1.055.1984h.1113l.0292-.0196V.9852L2.4184.9685h-.0832L2.3308.9653V.9464l.0058-.0041h.0444l.0064.0043v.0112h.0552V.9346l-.0283-.019h-.1098l-.0292.0196v.0456L2.3.9978h.0833l.0043.0029v.0197l-.0058.0039H2.336l-.0064-.0041V1.009h-.0552v.0232l.0283.019zm.168 0h.0552v-.0436h.0844l.031-.021V.9363l-.031-.0208h-.1396v.1356zm.0552-.0696v-.04h.0517l.0082.0054v.0291l-.0082.0055H2.526zm.1291.0696h.1224v-.0257h-.0336V.941h.0336V.9156H2.655V.941h.0333v.0844H2.655v.0257zm.2647 0h.0613L2.9247.9708l.054-.0552H2.917l-.059.0658V.9156h-.0552v.1356h.0552v-.024l.027-.028.0347.052zm.075 0h.1224v-.0257h-.0335V.941h.0335V.9156h-.1224V.941h.0333v.0844h-.0333v.0257zm.1479 0h.049V.9704l.0637.0808h.0567V.9156h-.049v.0796L3.1986.9156h-.0561v.1356zm.2296 0h.113l.0292-.0196V.9747H3.418v.0272h.041v.019l-.0062.0042h-.0462l-.01-.0065v-.069l.01-.0067h.0462l.0061.0043v.0116h.0555V.9352L3.4852.9156h-.113l-.031.0208v.094l.031.0208z"/>
  <path fill="#d2ae6d" d="M1.3024.4424v.8711a.1867.1867 0 0 1-.1863.1863h-.1048a.1867.1867 0 0 1-.1862-.1863V.4424A.1004.1004 0 0 1 .8883.2642h.0762a.1158.1158 0 0 0-.0637.0495H.8883a.051.051 0 0 0-.0508.0508.051.051 0 0 0 .037.0489v.9c0 .0753.0616.1368.1368.1368h.1048a.1372.1372 0 0 0 .1368-.1368v-.9a.051.051 0 0 0-.0137-.0997H1.132a.0869.0869 0 0 0 .0486-.0495h.0584a.1004.1004 0 0 1 .0633.178zM.9937 0a.0546.0546 0 1 1 0 .1092.0546.0546 0 0 1 0-.1092zm.138.0985a.03.03 0 1 1 .0001.0599.03.03 0 0 1 0-.06zm-.032.0877a.047.047 0 1 1 0 .0942.047.047 0 0 1 0-.0942zM.999.2932a.0813.0813 0 1 1 0 .1627.0813.0813 0 0 1 0-.1626zm.1295.1306a.0631.0631 0 1 1 0 .1263.0631.0631 0 0 1 0-.1263zm-.2099.684V.5715h.29v.742a.093.093 0 0 1-.0926.0927h-.1048a.093.093 0 0 1-.0926-.0927v-.2057zm.033.6499c-.014-.0592-.2314-.0943-.3058-.0612.0559.0592.2702.1105.3057.0612zM.603 1.6785c.0107-.0567-.1647-.171-.242-.1708.0258.0729.1922.1999.242.1708zm.1994-.0364c.0019-.0577-.189-.1435-.2654-.1314.0367.068.2207.1679.2654.1314zm-.1234.1469C.6702 1.732.4667 1.683.394 1.7092c.0487.06.248.1239.2852.0798zm-.3496-.3095c.0294-.0463-.0853-.2087-.1536-.2358-.0028.0734.0994.244.1536.2358zm.1611.0138c.0268-.0479-.0968-.2037-.1665-.2268.0013.0734.1129.238.1665.2268zm-.1213.1279c.0143-.053-.1434-.174-.2166-.1796.019.071.1672.2035.2166.1796zm-.2076-.4127C.2038 1.1779.159.9943.1081.9466c-.028.0639.0028.2503.0536.2619zm.114.0427C.32 1.2236.2885 1.0373.241.9862c-.0326.0617-.015.2498.0348.265zm-.1279.122c.0307-.0421-.0684-.203-.1315-.2328-.0071.0694.0796.2373.1315.2328zM.1024.9072C.1496.8924.1644.7135.1328.6553.0883.7042.0601.8815.1024.9072zM.173.969C.222.9611.2631.7864.2406.7241.1893.766.1352.937.173.9689zm-.1346.0856C.0822 1.0313.0648.8527.0233.801c-.035.0563-.031.2357.0152.2535zm.1032-.42C.1887.6353.2563.4788.2455.4167.1905.4474.1115.5985.1417.6345zm.0317.0799c.046.0095.1414-.132.1423-.1949-.0597.02-.1653.154-.1423.1949zM.06.704C.1056.6932.132.5248.1062.4674.0607.5108.0216.6767.0598.704zm.1971-.3C.2998.417.4022.2914.4085.232.3503.2458.2388.3633.257.404zM.4228.2185C.4692.251.6418.14.6726.0708.5971.0646.4168.1624.4228.2186zm-.006.075C.4472.3232.5885.2622.6198.2148.5647.2009.4192.2512.4168.2936zM.3332.2142C.3726.2298.4793.119.4899.0632.4338.0716.3191.1741.3332.2141zM.2747.478C.3126.5017.4443.4074.466.3517.4062.3497.2678.4339.2747.478zM.1654.4257C.21.43.2856.2868.2801.2272.2257.2523.1395.3895.1654.4258zm.7887 1.4057c-.0329-.0533-.257-.0169-.319.0397.074.0397.3002.02.319-.0397zm2.4119-.0737c.0139-.0592.2314-.0943.3057-.0612-.0559.0592-.2701.1105-.3057.0612zm.3485-.0792c-.0107-.0567.1647-.171.242-.1708-.0257.0729-.1921.1999-.242.1708zm-.1994-.0364c-.0018-.0577.189-.1435.2655-.1314-.0368.068-.2207.1679-.2655.1314zm.1234.1469c.0089-.057.2124-.1059.2852-.0798-.0487.06-.248.1239-.2852.0798zm.3496-.3095c-.0294-.0463.0854-.2087.1536-.2358.0029.0734-.0994.244-.1536.2358zm-.1611.0138c-.0268-.0479.0968-.2037.1665-.2268-.0012.0734-.1128.238-.1665.2268zm.1213.1279c-.0143-.053.1434-.174.2167-.1796-.019.071-.1673.2035-.2167.1796zm.2076-.4127c-.0421-.0306.0027-.2142.0536-.2619.0281.0639-.0028.2503-.0536.2619zm-.114.0427c-.0443-.0276-.0127-.2139.0347-.265.0326.0617.015.2498-.0348.265zm.128.122c-.0307-.0421.0683-.203.1314-.2328.0071.0695-.0796.2373-.1315.2328zm.0453-.466c-.0471-.0149-.062-.1938-.0304-.252.0445.049.0727.2263.0304.252zM4.1445.969c-.0489-.0078-.09-.1825-.0675-.2448.0513.042.1055.213.0675.2448zm.1347.0856c-.0438-.0232-.0264-.2018.0151-.2535.035.0563.031.2357-.0151.2535zm-.1032-.42C4.129.6353 4.0614.4788 4.072.4167c.055.0307.134.1817.1039.2178zm-.0318.0799c-.046.0095-.1413-.132-.1422-.1949.0596.02.1653.154.1422.1949zM4.2578.704C4.212.6932 4.1855.5248 4.2113.4674c.0456.0434.0847.2093.0465.2367zm-.1972-.3C4.0179.417 3.9155.2914 3.9092.232c.0582.0138.1696.1313.1514.172zM3.8948.2185C3.8484.251 3.676.14 3.645.0708c.0755-.0062.2559.0916.2498.1478zm.006.075c-.0304.0296-.1716-.0314-.203-.0788.0551-.0139.2006.0364.203.0788zm.0837-.0794C3.945.2298 3.8383.119 3.8277.0632c.0562.0085.1709.111.1568.151zm.0584.2638C4.005.5017 3.8733.4074 3.8517.3517c.0598-.002.1981.0822.1912.1263zm.1093-.0523C4.1077.43 4.032.2868 4.0376.2272c.0543.025.1405.1622.1146.1985zm-.7886 1.4057c.0328-.0533.257-.0169.319.0397-.074.0397-.3003.02-.319-.0397z"/>
</svg>
